X:275
T:Into the dark
C:Michel-A Roy
Z:robin.beech@mcgill.ca
M:2/4
L:1/16
K:D
BEED E2GA | BEED EDB,D | EDB,D EDB,D | A4 A2GA |
BEED E2GA | BEED EDB,D | aged gedB |1 e4- e2GA :|2 e8 ||
d4c4 | B4A2G2 | F2 c4 [F2-c2-] | [F8c8] | f4e4 | d4e2c2- | c8- | c8 |
FGBG GBFG | B[G,F][G,G][G,-B-][G,4B4] | GAcG AcGA c[G,G][G,A][G,-c-][G,4c4] |
ABdA BdAB | d[G,A][G,B][G,-d-] | [G,4d4] | aged gedB | e8 |]
